X: 1
T:Der k\"uhle Maien
C:Johann Hermann Schein
O:Germany
N:1628
Z:Transcribed by Frank Nordberg - http://www.musicaviva.com

V:1 Program 1 74 %Recorder
V:2 Program 1 72 %Piccolo
V:3 Program 1 71 %Clarinet
M:3/4
L:1/4
Q:1/4=228
K:G
V:1
ded|d3|d2d|e2c|

V:2
BcB|B3|B2B|c2G|

V:3
GGG|G3|G2G|C2E|

V:1
d2e|c2e|d2B|A2G|

V:2
A2B|c2c|B2G|F2E|

V:3
=F2G|C2C|G2G,|D2E|

V:1
A2B|c3|BA2|G3|

V:2
F2G|E&gt;=FG|GF2|G3|

V:3
D2G|C&gt;DE|CD2|G,3|

V:1
AB^c|d3|B=cd|e2d|

V:2
FGG|F3|GAB|c2B|

V:3
DGE|D3|G=FD|C2G|

V:1
g&gt;=fe|ed2|c3|edc|B3|

V:2
e&gt;dc|cB2|c3|GGE|G3|

V:3
C&gt;DE|=FG2|C3|CB,C|G,3|

V:1
dcB|A2d|e&gt;dc|BA2|G3|]

V:2
GEG|F2G|G&gt;FG|GF2|G3|]

V:3
B,CG,|D2B,|C&gt;DE|CD2|G,3|]

